!!!OTL: Jiangnan xinsijun
!!!ARE: Asia, China, Shanxi Zuoquan
!! I, 308, 2)
!!!SCT: C2122
!!!YEM: Copyright 1995, estate of Helmut Schaffrath.
**kern
*ICvox
*Ivox
*M2/4
*k[f#c#g#]
*A:
{8.b
16b
8b
8ee
=1
8dd
8cc#
8b
8cc#
=2
8ee
8g#
8b
16cc#
16b
=3
8a
16g#
16f#
4e}
=4
{8a
16g#
16f#
4e
=5
8b
8ee
8dd
8cc#
=6
4b
8e
8f#
=7
4a
8g#
8f#
=8
8e
16e
16e
16f#
16e
8c#
=9
2e}
==
!!!AGN: Xiaodiao, Huipuojia
!! Han
!!!ONB: ESAC (Essen Associative Code) Database: SENGANSU
!!!AMT: simple duple
!!!AIN: vox
!!!EED: Helmut Schaffrath
!!!EEV: 1.0
*-
